static/dist/images/icons/light-down.svg

<svg xmlns="http://www.w3.org/2000/svg" viewBox="0 0 20 20"><path d="M10 6.797a3.191 3.191 0 0 0-3.2 3.201 3.19 3.19 0 0 0 3.2 3.199 3.19 3.19 0 0 0 3.199-3.199A3.19 3.19 0 0 0 10 6.797zm0 5.25a2.049 2.049 0 1 1 0-4.1 2.05 2.05 0 0 1 0 4.1zM15 5c-.312-.312-.883-.248-1.273.142-.39.391-.453.959-.141 1.272s.882.25 1.273-.141c.39-.39.453-.961.141-1.273zm-9.858 8.729c-.391.39-.454.959-.142 1.271s.882.25 1.273-.141c.391-.391.454-.961.142-1.273s-.883-.248-1.273.143zM5 5c-.312.312-.249.883.141 1.273.391.391.961.453 1.273.141s.249-.883-.142-1.273C5.883 4.752 5.312 4.688 5 5zm8.727 9.857c.39.391.96.455 1.273.143s.249-.883-.142-1.274-.96-.453-1.273-.141-.248.882.142 1.272zM10 4.998c.441 0 .8-.447.8-1C10.799 3.445 10.441 3 10 3c-.442 0-.801.445-.801.998 0 .553.358 1 .801 1zM10 17c.441 0 .8-.447.8-1 0-.553-.358-.998-.799-.998-.442 0-.801.445-.801.998-.001.553.357 1 .8 1zm-5-7c0-.441-.45-.8-1.003-.8-.553 0-.997.359-.997.8 0 .442.444.8.997.8C4.55 10.8 5 10.442 5 10zm12 0c0-.441-.448-.8-1.001-.8-.553 0-.999.359-.999.8 0 .442.446.8.999.8.553 0 1.001-.358 1.001-.8z"/></svg>

<?xml version="1.0" encoding="utf-8"?>
<!-- Generator: Adobe Illustrator 18.1.0, SVG Export Plug-In . SVG Version: 6.00 Build 0)  -->
<!DOCTYPE svg PUBLIC "-//W3C//DTD SVG 1.1//EN" "http://www.w3.org/Graphics/SVG/1.1/DTD/svg11.dtd">
<svg version="1.1" id="Light_down" xmlns="http://www.w3.org/2000/svg" xmlns:xlink="http://www.w3.org/1999/xlink" x="0px" y="0px"
	 viewBox="0 0 20 20" enable-background="new 0 0 20 20" xml:space="preserve">
<path d="M10,6.797c-1.775,0-3.2,1.426-3.2,3.201c0,1.773,1.425,3.199,3.2,3.199c1.774,0,3.199-1.426,3.199-3.199
	C13.199,8.223,11.774,6.797,10,6.797z M10,12.047c-1.133,0-2.051-0.916-2.051-2.049c0-1.133,0.918-2.051,2.051-2.051
	c1.132,0,2.05,0.918,2.05,2.051C12.049,11.131,11.131,12.047,10,12.047z M15,5c-0.312-0.312-0.883-0.248-1.273,0.142
	c-0.39,0.391-0.453,0.959-0.141,1.272s0.882,0.25,1.273-0.141C15.249,5.883,15.312,5.312,15,5z M5.142,13.729
	C4.751,14.119,4.688,14.688,5,15s0.882,0.25,1.273-0.141c0.391-0.391,0.454-0.961,0.142-1.273S5.532,13.338,5.142,13.729z M5,5
	C4.688,5.312,4.751,5.883,5.141,6.273c0.391,0.391,0.961,0.453,1.273,0.141s0.249-0.883-0.142-1.273C5.883,4.752,5.312,4.688,5,5z
	 M13.727,14.857c0.39,0.391,0.96,0.455,1.273,0.143s0.249-0.883-0.142-1.274c-0.391-0.391-0.96-0.453-1.273-0.141
	S13.337,14.467,13.727,14.857z M10,4.998c0.441,0,0.8-0.447,0.8-1C10.799,3.445,10.441,3,10,3C9.558,3,9.199,3.445,9.199,3.998
	C9.199,4.551,9.557,4.998,10,4.998z M10,17c0.441,0,0.8-0.447,0.8-1c0-0.553-0.358-0.998-0.799-0.998
	c-0.442,0-0.801,0.445-0.801,0.998C9.199,16.553,9.557,17,10,17z M5,10c0-0.441-0.45-0.8-1.003-0.8C3.444,9.2,3,9.559,3,10
	c0,0.442,0.444,0.8,0.997,0.8C4.55,10.8,5,10.442,5,10z M17,10c0-0.441-0.448-0.8-1.001-0.8C15.446,9.2,15,9.559,15,10
	c0,0.442,0.446,0.8,0.999,0.8C16.552,10.8,17,10.442,17,10z"/>
</svg>
